packages/core/src/svgs/tokens/mono/HXRO.svg

<svg width="24" height="24" viewBox="0 0 24 24" fill="none" xmlns="http://www.w3.org/2000/svg">
<path d="M12.4435 2C15.8809 2 18.6934 4.23748 19.6747 5.35623L18.7372 6.37497L18.6685 6.30621C16.3497 4.19373 15.2435 3.19374 11.8435 2.7875C9.09356 2.45624 6.2185 4.17499 5.12476 5.08122C5.47475 4.53123 8.14974 2 12.4435 2Z" fill="white"/>
<path d="M12.0251 21.9999C8.53128 21.9999 5.66879 19.7873 4.67505 18.6873L5.62504 17.6748C8.03128 19.8061 9.13759 20.8187 12.6376 21.2248C15.4313 21.5499 18.3875 19.8499 19.5 18.9561C19.1437 19.4999 16.3875 21.9999 12.0251 21.9999Z" fill="white"/>
<path d="M8.52495 12.1562L5.71247 7.4436L5.42498 8.1436L8.03746 12.1562L2 21.9998L8.52495 12.1562Z" fill="white"/>
<path d="M12.7311 9.0938L15.7499 6.375L12.1812 10.3749L10.7312 8.24998H8.60621L10.875 11.9499L2 22L9.62489 11.9499L6.67496 6.99999H11.3874L12.7374 9.0938H12.7311Z" fill="white"/>
<path d="M15.5374 12.4562L21.9999 2.625L15.8874 12.4562L18.6373 16.7312L18.4374 17.4937L15.5374 12.4562Z" fill="white"/>
<path d="M13.2562 12.5L22 2.625L14.4688 12.5L17.5187 17.625H12.8312L11.4938 15.5874L8.25 18.2499L11.925 14.0687L13.5312 16.3749H15.6624L13.2562 12.5Z" fill="white"/>
</svg>

<svg xmlns="http://www.w3.org/2000/svg" width="24" height="24" fill="none" viewBox="0 0 24 24">
    <path fill="#fff" d="M12.444 2c3.437 0 6.25 2.237 7.23 3.356l-.937 1.019-.068-.069c-2.32-2.112-3.426-3.112-6.825-3.518-2.75-.332-5.625 1.387-6.72 2.293C5.475 4.531 8.15 2 12.445 2m-.42 20c-3.494 0-6.356-2.213-7.35-3.313l.95-1.012c2.406 2.131 3.513 3.144 7.013 3.55 2.793.325 5.75-1.375 6.862-2.269C19.144 19.5 16.387 22 12.025 22m-3.5-9.844L5.712 7.444l-.287.7 2.612 4.012L2 22z"/>
    <path fill="#fff" d="m12.731 9.094 3.019-2.719-3.569 4-1.45-2.125H8.606l2.269 3.7L2 22l7.625-10.05L6.675 7h4.712l1.35 2.094zm2.806 3.362L22 2.625l-6.113 9.831 2.75 4.275-.2.763z"/>
    <path fill="#fff" d="M13.256 12.5 22 2.625 14.469 12.5l3.05 5.125H12.83l-1.337-2.038L8.25 18.25l3.675-4.181 1.606 2.306h2.131z"/>
</svg>
